build/images/content/marketing/img_1.svg

<svg width="120" height="120" viewBox="0 0 120 120" fill="none" xmlns="http://www.w3.org/2000/svg">
<g clip-path="url(#clip0)">
<path d="M63.9051 14.3884C66.1888 13.0394 67.7413 10.5794 67.7413 7.74191C67.7413 3.47209 64.2693 0 59.9994 0C55.7296 0 52.2575 3.47209 52.2575 7.74191C52.2575 10.5794 53.8096 13.0394 56.0938 14.3884C52.701 15.8942 50.3223 19.2813 50.3223 23.2257V25.1614C50.3223 26.23 51.1873 27.0971 52.2579 27.0971H58.0646V40.6456H61.9347V27.0967H67.7413C68.8116 27.0967 69.677 26.2296 69.677 25.161V23.2257C69.6766 19.2813 67.2979 15.8942 63.9051 14.3884ZM59.9994 3.87095C62.1341 3.87095 63.8704 5.60721 63.8704 7.74191C63.8704 9.87661 62.1341 11.6129 59.9994 11.6129C57.8647 11.6129 56.1285 9.87661 56.1285 7.74191C56.1285 5.60721 57.8643 3.87095 59.9994 3.87095ZM54.1928 23.2257C54.1928 20.0245 56.7978 17.4191 59.9994 17.4191C63.2011 17.4191 65.8061 20.0241 65.8061 23.2257H54.1928Z" fill="#043A52"/>
<path d="M3.87082 40.6454H19.3546C20.4249 40.6454 21.2903 39.7783 21.2903 38.7097V38.4542L41.5064 51.9329L43.6527 48.7123L20.6379 33.3697C19.7205 30.9464 17.874 28.9838 15.5167 27.9367C17.8025 26.5878 19.3546 24.1277 19.3546 21.2902C19.3546 17.0204 15.8825 13.5483 11.6127 13.5483C7.34291 13.5483 3.87082 17.0204 3.87082 21.2902C3.87082 24.1277 5.42292 26.5878 7.70709 27.9367C4.31428 29.4426 1.93555 32.8296 1.93555 36.7741V38.7097C1.93513 39.7783 2.80058 40.6454 3.87082 40.6454ZM11.6127 17.4197C13.7474 17.4197 15.4837 19.156 15.4837 21.2907C15.4837 23.4254 13.7474 25.1616 11.6127 25.1616C9.47802 25.1616 7.74177 23.4254 7.74177 21.2907C7.74177 19.156 9.47761 17.4197 11.6127 17.4197ZM11.6127 30.9678C14.814 30.9678 17.4194 33.5728 17.4194 36.7745H5.80609C5.80609 33.5728 8.4115 30.9678 11.6127 30.9678Z" fill="#043A52"/>
<path d="M112.293 27.9367C114.577 26.5878 116.129 24.1277 116.129 21.2902C116.129 17.0204 112.657 13.5483 108.387 13.5483C104.117 13.5483 100.645 17.0204 100.645 21.2902C100.645 24.1277 102.198 26.5878 104.482 27.9367C102.124 28.9838 100.278 30.9464 99.3605 33.3697L76.3457 48.7123L78.492 51.9329L98.7101 38.4542V38.7097C98.7101 39.7783 99.5752 40.6454 100.646 40.6454H116.13C117.2 40.6454 118.065 39.7783 118.065 38.7097V36.7741C118.064 32.8296 115.686 29.4426 112.293 27.9367ZM108.387 17.4197C110.522 17.4197 112.258 19.156 112.258 21.2907C112.258 23.4254 110.522 25.1616 108.387 25.1616C106.252 25.1616 104.516 23.4254 104.516 21.2907C104.516 19.156 106.252 17.4197 108.387 17.4197ZM102.581 36.7745C102.581 33.5733 105.186 30.9678 108.387 30.9678C111.589 30.9678 114.194 33.5728 114.194 36.7745H102.581Z" fill="#043A52"/>
<path d="M112.293 82.1301C114.577 80.7832 116.129 78.3231 116.129 75.4836C116.129 71.2138 112.657 67.7417 108.387 67.7417C104.117 67.7417 100.645 71.2138 100.645 75.4836C100.645 78.3231 102.197 80.7828 104.482 82.1301C103.411 82.6062 102.44 83.2623 101.615 84.0732L78.5228 68.0861L76.3184 71.2699L99.4475 87.2823C98.9772 88.4186 98.71 89.661 98.71 90.9674V92.9031C98.71 93.9733 99.5751 94.8388 100.646 94.8388H116.13C117.2 94.8388 118.065 93.9738 118.065 92.9031V90.9674C118.064 87.023 115.686 83.6359 112.293 82.1301ZM108.387 71.6131C110.521 71.6131 112.258 73.3493 112.258 75.484C112.258 77.6187 110.521 79.355 108.387 79.355C106.252 79.355 104.516 77.6187 104.516 75.484C104.516 73.3493 106.252 71.6131 108.387 71.6131ZM102.581 90.9678C102.581 87.7666 105.186 85.1612 108.387 85.1612C111.588 85.1612 114.194 87.7662 114.194 90.9678H102.581Z" fill="#043A52"/>
<path d="M63.9055 107.292C66.1893 105.945 67.7418 103.485 67.7418 100.645C67.7418 97.047 65.2664 94.0431 61.9351 93.1781V79.355H58.0642V93.1781C54.7333 94.0431 52.2575 97.047 52.2575 100.645C52.2575 103.485 53.8096 105.944 56.0938 107.292C52.701 108.797 50.3223 112.184 50.3223 116.129V118.065C50.3223 119.135 51.1873 120 52.2579 120H67.7418C68.812 120 69.6775 119.135 69.6775 118.065V116.129C69.677 112.184 67.2983 108.797 63.9055 107.292ZM59.9999 96.7741C62.1346 96.7741 63.8708 98.5103 63.8708 100.645C63.8708 102.78 62.1346 104.516 59.9999 104.516C57.8652 104.516 56.1289 102.78 56.1289 100.645C56.1289 98.5103 57.8647 96.7741 59.9999 96.7741ZM54.1932 116.129C54.1932 112.928 56.7982 110.322 59.9999 110.322C63.2015 110.322 65.8065 112.927 65.8065 116.129H54.1932Z" fill="#043A52"/>
<path d="M41.4792 68.0861L18.3868 84.0732C17.5622 83.2623 16.5907 82.6062 15.5204 82.1301C17.8025 80.7828 19.3546 78.3231 19.3546 75.4836C19.3546 71.2138 15.8825 67.7417 11.6127 67.7417C7.34291 67.7417 3.87082 71.2138 3.87082 75.4836C3.87082 78.3231 5.42292 80.7828 7.70709 82.1301C4.31427 83.6359 1.93555 87.023 1.93555 90.9674V92.9027C1.93555 93.9729 2.80058 94.8384 3.87123 94.8384H19.355C20.4253 94.8384 21.2907 93.9733 21.2907 92.9027V90.967C21.2907 89.6606 21.0236 88.4182 20.5533 87.2819L43.6824 71.2695L41.4792 68.0861ZM11.6127 71.6127C13.7474 71.6127 15.4837 73.3489 15.4837 75.4836C15.4837 77.6183 13.7474 79.3546 11.6127 79.3546C9.47802 79.3546 7.74177 77.6183 7.74177 75.4836C7.74177 73.3489 9.47761 71.6127 11.6127 71.6127ZM5.80609 90.9674C5.80609 87.7662 8.41109 85.1608 11.6127 85.1608C14.8144 85.1608 17.4194 87.7658 17.4194 90.9674H5.80609Z" fill="#043A52"/>
<path d="M60.0004 81.2899C48.2616 81.2899 38.71 71.7382 38.71 59.9994C38.71 48.2606 48.2616 38.709 60.0004 38.709C71.7392 38.709 81.2909 48.2606 81.2909 59.9994C81.2909 71.7382 71.7388 81.2899 60.0004 81.2899Z" fill="#00BBD3"/>
<path d="M63.9051 58.904C66.1888 57.5551 67.7414 55.095 67.7414 52.2575C67.7414 47.9877 64.2693 44.5156 59.9994 44.5156C55.7296 44.5156 52.2575 47.9877 52.2575 52.2575C52.2575 55.095 53.8096 57.5551 56.0938 58.904C52.701 60.4099 50.3223 63.7969 50.3223 67.7414V69.677C50.3223 70.7473 51.1873 71.6127 52.258 71.6127H67.7418C68.812 71.6127 69.6775 70.7477 69.6775 69.677V67.7414C69.6766 63.7969 67.2979 60.4099 63.9051 58.904ZM59.9994 48.387C62.1341 48.387 63.8704 50.1232 63.8704 52.258C63.8704 54.3927 62.1341 56.1289 59.9994 56.1289C57.8647 56.1289 56.1285 54.3927 56.1285 52.258C56.1285 50.1232 57.8643 48.387 59.9994 48.387ZM54.1928 67.7418C54.1928 64.5405 56.7978 61.9351 59.9994 61.9351C63.2011 61.9351 65.8061 64.5401 65.8061 67.7418H54.1928Z" fill="#043A52"/>
</g>
<defs>
<clipPath id="clip0">
<rect width="120" height="120" fill="white"/>
</clipPath>
</defs>
</svg>

<svg width="120" height="120" fill="none" xmlns="http://www.w3.org/2000/svg"><g clip-path="url(#clip0)"><path d="M63.905 14.388c2.284-1.349 3.836-3.809 3.836-6.646C67.741 3.472 64.27 0 60 0s-7.742 3.472-7.742 7.742c0 2.837 1.553 5.297 3.837 6.646-3.393 1.506-5.772 4.893-5.772 8.838v1.935c0 1.069.865 1.936 1.936 1.936h5.807v13.549h3.87v-13.55h5.806c1.07 0 1.936-.866 1.936-1.935v-1.935c0-3.945-2.38-7.332-5.772-8.838zM60 3.871a3.875 3.875 0 013.871 3.87A3.875 3.875 0 0160 11.614a3.875 3.875 0 01-3.871-3.871 3.875 3.875 0 013.87-3.871zm-5.806 19.355A5.814 5.814 0 0160 17.419a5.813 5.813 0 015.807 5.807H54.193zM3.87 40.645h15.485c1.07 0 1.935-.867 1.935-1.935v-.256l20.216 13.479 2.147-3.22L20.638 33.37a9.703 9.703 0 00-5.121-5.433c2.285-1.35 3.838-3.81 3.838-6.647 0-4.27-3.473-7.742-7.742-7.742-4.27 0-7.742 3.472-7.742 7.742 0 2.838 1.552 5.298 3.836 6.647-3.393 1.506-5.771 4.893-5.771 8.837v1.936c0 1.068.865 1.935 1.935 1.935zm7.743-23.225a3.875 3.875 0 013.87 3.87 3.875 3.875 0 01-3.87 3.872 3.875 3.875 0 01-3.871-3.871 3.875 3.875 0 013.87-3.871zm0 13.548a5.814 5.814 0 015.806 5.807H5.806a5.814 5.814 0 015.807-5.807zm100.68-3.031c2.284-1.35 3.836-3.81 3.836-6.647 0-4.27-3.472-7.742-7.742-7.742s-7.742 3.472-7.742 7.742c0 2.838 1.553 5.298 3.837 6.647a9.701 9.701 0 00-5.121 5.433L76.346 48.712l2.146 3.22L98.71 38.455v.256c0 1.068.865 1.935 1.936 1.935h15.484c1.07 0 1.935-.867 1.935-1.935v-1.936c-.001-3.944-2.379-7.331-5.772-8.837zm-3.906-10.517a3.875 3.875 0 013.871 3.87 3.875 3.875 0 01-3.871 3.872 3.875 3.875 0 01-3.871-3.871 3.875 3.875 0 013.871-3.871zm-5.806 19.355a5.814 5.814 0 015.806-5.807 5.814 5.814 0 015.807 5.807h-11.613zm9.712 45.355c2.284-1.347 3.836-3.807 3.836-6.646 0-4.27-3.472-7.742-7.742-7.742s-7.742 3.472-7.742 7.742c0 2.84 1.552 5.299 3.837 6.646a9.709 9.709 0 00-2.867 1.943L78.523 68.086l-2.205 3.184 23.13 16.012a9.61 9.61 0 00-.738 3.685v1.936c0 1.07.865 1.936 1.936 1.936h15.484c1.07 0 1.935-.865 1.935-1.936v-1.936c-.001-3.944-2.379-7.331-5.772-8.837zm-3.906-10.517a3.875 3.875 0 013.871 3.871 3.876 3.876 0 01-3.871 3.871 3.875 3.875 0 01-3.871-3.871 3.875 3.875 0 013.871-3.87zm-5.806 19.355a5.814 5.814 0 015.806-5.807 5.814 5.814 0 015.807 5.807h-11.613zm-38.675 16.324c2.283-1.347 3.836-3.807 3.836-6.647 0-3.598-2.476-6.602-5.807-7.467V79.355h-3.87v13.823c-3.332.865-5.807 3.869-5.807 7.467 0 2.84 1.552 5.299 3.836 6.647-3.393 1.505-5.772 4.892-5.772 8.837v1.936c0 1.07.865 1.935 1.936 1.935h15.484c1.07 0 1.935-.865 1.935-1.935v-1.936c0-3.945-2.379-7.332-5.772-8.837zM60 96.774a3.875 3.875 0 013.87 3.871 3.875 3.875 0 01-3.87 3.871 3.875 3.875 0 01-3.871-3.871 3.875 3.875 0 013.87-3.87zm-5.807 19.355A5.814 5.814 0 0160 110.322a5.813 5.813 0 015.806 5.807H54.194zM41.48 68.086L18.386 84.073a9.71 9.71 0 00-2.867-1.943c2.282-1.347 3.835-3.807 3.835-6.646 0-4.27-3.473-7.742-7.742-7.742-4.27 0-7.742 3.472-7.742 7.742 0 2.84 1.552 5.299 3.836 6.646-3.393 1.506-5.771 4.893-5.771 8.837v1.936c0 1.07.865 1.935 1.935 1.935h15.484c1.07 0 1.936-.865 1.936-1.935v-1.936a9.61 9.61 0 00-.738-3.685l23.13-16.013-2.204-3.183zm-29.867 3.527a3.875 3.875 0 013.87 3.87 3.875 3.875 0 01-3.87 3.872 3.875 3.875 0 01-3.871-3.871 3.875 3.875 0 013.87-3.871zM5.806 90.967a5.814 5.814 0 015.807-5.806 5.813 5.813 0 015.806 5.806H5.806z" fill="#043A52"/><path d="M60 81.29c-11.738 0-21.29-9.552-21.29-21.29 0-11.74 9.552-21.291 21.29-21.291 11.74 0 21.29 9.552 21.29 21.29 0 11.74-9.551 21.29-21.29 21.29z" fill="#00BBD3"/><path d="M63.905 58.904c2.284-1.349 3.836-3.809 3.836-6.647 0-4.27-3.472-7.741-7.742-7.741s-7.742 3.472-7.742 7.742c0 2.837 1.553 5.297 3.837 6.646-3.393 1.506-5.772 4.893-5.772 8.837v1.936c0 1.07.865 1.936 1.936 1.936h15.484c1.07 0 1.935-.865 1.935-1.936v-1.936c0-3.944-2.38-7.331-5.772-8.837zM60 48.387a3.875 3.875 0 013.871 3.871 3.875 3.875 0 01-3.87 3.87 3.875 3.875 0 01-3.871-3.87A3.875 3.875 0 0160 48.387zm-5.806 19.355A5.814 5.814 0 0160 61.935a5.813 5.813 0 015.807 5.807H54.193z" fill="#043A52"/></g><defs><clipPath id="clip0"><path fill="#fff" d="M0 0h120v120H0z"/></clipPath></defs></svg>
